!!!COA:	Josquin des Prez
!!!CDT:	~1450-1521/08/27
!!!OPR:	Missa Ferialis
!!!ONM:	4
!!!OTL:	Sanctus
!!!AGN:	Mass; Sanctus
!!!SCT:	NJE 4.1
!!!SCA:	New Josquin Edition 4.1
!!!voices:	4
!!!voices-OPR:	4
**kern	**kern	**kern	**kern
*staff4	*staff3	*staff2	*staff1
*Ivox	*Ivox	*Ivox	*Ivox
*I"Bassus	*I"Tenor	*I"Altus	*I"Superius
*I'B	*I'T	*I'A	*I'S
*>[A,B]	*>[A,B]	*>[A,B]	*>[A,B]
*>A	*>A	*>A	*>A
*>B	*>B	*>B	*>B
*clefF4	*clefGv2	*clefGv2	*clefG2
*k[]	*k[]	*k[]	*k[]
*M2/1	*M2/1	*M2/1	*M2/1
*met(O2)	*met(O2)	*met(O2)	*met(O2)
!!incipit: 6
!!section: Sanctus-Pleni-Osanna I
!!!OMD: Sanctus-Pleni-Osanna I
=1-	=1-	=1-	=1-
[0AA	[0A	0e	[0a
=2.	=2.	=2.	=2.
0AA]	0A_	0c	0a]
=3.	=3.	=3.	=3.
0D	0A_	0d	0f
=4	=4	=4	=4
1C	0A_	1r	1e
[1F	.	1c	[1a
=5.	=5.	=5.	=5.
2F\]	0A_	1d	2a/]
2E\	.	.	2g/
1C	.	1e	1g
=6.	=6.	=6.	=6.
0D	0A]	0d	1.f#i
.	.	.	2e/
=7	=7	=7	=7
0E	[0G	0B	0g
=8.	=8.	=8.	=8.
0C	0G_	0e	0cc
=9.	=9.	=9.	=9.
0BB	0G]	1.d	0dd
.	.	2c\	.
=10	=10	=10	=10
1AA	[0A	1e	1cc
[1D	.	2d\	[1a
.	.	[2f\	.
=11.	=11.	=11.	=11.
1D]	0A_	2f\]	2a/]
.	.	4e\	2b\
.	.	4d\	.
1C	.	1e	1cc
=12.	=12.	=12.	=12.
1D	0A_	1d	1f
1AA	.	1c	1e
=13	=13	=13	=13
0D	0A]	1A	1d
.	.	[1d	1f
=14.	=14.	=14.	=14.
1BB	[0G	1d]	1g
[1C	.	1G	[1e
=15.	=15.	=15.	=15.
2C/]	0G]	1c	2e/]
2D\	.	.	2f/
1E	.	2B\	1g
.	.	2c\	.
=16	=16	=16	=16
1D	0r	[0d	1f
[1G	.	.	[1b-i
=17.	=17.	=17.	=17.
1G]	0r	1d]	2b-\]
.	.	.	2a/
1A	.	1c	[1a
=18.	=18.	=18.	=18.
0E	0r	0B	1a]
.	.	.	1g#i
=19	=19	=19	=19
0r	[0F	3%2.AV	[0a
.	.	3B\	.
.	.	3%2cZ	.
=20.	=20.	=20.	=20.
0D	0F]	3%2dV	1a]
.	.	3%2A	.
.	.	.	2g/
.	.	3%2BZ	.
.	.	.	2f/
=21.	=21.	=21.	=21.
0C	0G	0c	0e
=22	=22	=22	=22
1BB	1G	1d	0r
1AA	[1A	1c	.
=23.	=23.	=23.	=23.
1D	2A/]	1f	0a
.	2G/	.	.
1C	1A	[1e	.
=24.	=24.	=24.	=24.
0BB	1B	2e\]	0dd
.	.	2d\	.
.	1G	2.d\	.
.	.	4c\	.
=25	=25	=25	=25
1AA	[0A	1e	1cc
[1D	.	[1f	1dd
=26.	=26.	=26.	=26.
1D]	0A]	2f\]	0a
.	.	2e\	.
1F	.	[1d	.
=27.	=27.	=27.	=27.
0E	0r	2d\]	0g
.	.	4c#i\	.
.	.	4B\	.
.	.	1c#i	.
=28	=28	=28	=28
0D	[0A	0d	0f
=29.	=29.	=29.	=29.
0C	1A]	1e	1e
.	[1G	[1g	1c
=30.	=30.	=30.	=30.
0BB	0G]	2g\]	0d
.	.	2f\	.
.	.	2.d\	.
.	.	4c\	.
=31	=31	=31	=31
[0AA	0A	1e	2.c/
.	.	.	4d/
.	.	1c	2e/
.	.	.	2f/
=32.	=32.	=32.	=32.
0AA]	0c	1A	2e/
.	.	.	2f/
.	.	[1e	2g/
.	.	.	[2a/
=33.	=33.	=33.	=33.
0E	0B	2e\]	2a/]
.	.	2d\	4g#i/
.	.	.	4f#i/
.	.	1e	1g#i
=34	=34	=34	=34
1F	0A	1.c	0a
[1A	.	.	.
.	.	[2e\	.
=35.	=35.	=35.	=35.
1A]	0r	2e\]	0e
.	.	4d\	.
.	.	4c\	.
1G	.	1B	.
=36.	=36.	=36.	=36.
1F	0r	2A/	1f
.	.	2.d\	.
1D	.	.	[1a
.	.	4e\	.
.	.	[2f\	.
=37	=37	=37	=37
0E	0r	2f\]	1a]
.	.	4e\	.
.	.	4d\	.
.	.	1c	1g
=38.	=38.	=38.	=38.
1D	0r	2.d\	0f
.	.	4c\	.
1F	.	2A/	.
.	.	[2d\	.
=39.	=39.	=39.	=39.
1G	0r	2d\]	0e
.	.	2c#i\	.
1A	.	2.c#i\	.
.	.	4B\	.
=40	=40	=40	=40
1D	0F	0d	0d
2r	.	.	.
2D\	.	.	.
=41.	=41.	=41.	=41.
2BB/	[0G	0r	0r
2.C/	.	.	.
4D\	.	.	.
[2E\	.	.	.
=42.	=42.	=42.	=42.
2E\]	0G]	0r	0r
4D\	.	.	.
4C/	.	.	.
1BB	.	.	.
=43	=43	=43	=43
2AA/	0A	1r	0f
2.D\	.	.	.
.	.	1d	.
4C/	.	.	.
2D\	.	.	.
=44.	=44.	=44.	=44.
2E\	0r	2B\	[0g
2C/	.	2c\	.
2BB/	.	2d\	.
[2C/	.	[2e\	.
=45.	=45.	=45.	=45.
4C/]	0r	4e\]	0g]
4D\	.	4d\	.
2.E\	.	2c\	.
.	.	1B	.
4F\	.	.	.
2G\	.	.	.
=46	=46	=46	=46
2.F\	0r	2A/	[0a
.	.	1d	.
4G\	.	.	.
1A	.	.	.
.	.	2c\	.
=47.	=47.	=47.	=47.
2D\	0r	2d\	0a_
2r	.	2e\	.
2AA/	.	1f	.
[2D\	.	.	.
=48.	=48.	=48.	=48.
2D\]	0r	1e	0a_
2C/	.	.	.
2D\	.	1d	.
2E\	.	.	.
=49	=49	=49	=49
1F	2AA/	0r	0a]
.	1D	.	.
1E	.	.	.
.	2C/	.	.
=50.	=50.	=50.	=50.
2D\	2.D/	0r	0r
2.F\	.	.	.
.	4E/	.	.
.	1F	.	.
4E\	.	.	.
[2D\	.	.	.
=51.	=51.	=51.	=51.
2D\]	1E	0r	0r
2C#i/	.	.	.
1D	1D	.	.
=52	=52	=52	=52
0r	0r	1.d	1.a
.	.	2e\	2g/
=53.	=53.	=53.	=53.
0r	0r	2f\	2a/
.	.	2g\	2b\
.	.	2e\	1cc
.	.	[2a\	.
=54.	=54.	=54.	=54.
0r	0r	2a\]	1b
.	.	2g\	.
.	.	2f\	1a
.	.	4e\	.
.	.	4d\	.
=55	=55	=55	=55
0r	0r	1f	2d/
.	.	.	1a
.	.	1e	.
.	.	.	2g/
=56.	=56.	=56.	=56.
0r	0r	1A	2a/
.	.	.	1cc
.	.	1e	.
.	.	.	[2b\
=57.	=57.	=57.	=57.
0r	0r	2d\	2b\]
.	.	2c\	1a
.	.	1B	.
.	.	.	2g#i/
=58	=58	=58	=58
2D\	0r	1A	1a
2F\	.	.	.
2G\	.	2B\	1r
2A\	.	2c\	.
=59.	=59.	=59.	=59.
1B-i	0r	2d\	0r
.	.	1f	.
1A	.	.	.
.	.	[2e\	.
=60.	=60.	=60.	=60.
2G\	0r	2e\]	0r
2F\	.	1d	.
1E	.	.	.
.	.	2c#i\	.
=61	=61	=61	=61
0D	0F	0d	1.a
.	.	.	2b\
=62.	=62.	=62.	=62.
1C	1E	1e	1cc
1D	1F	[1d	1a
=63.	=63.	=63.	=63.
0BB	0G	2d\]	1b
.	.	2c\	.
.	.	1d	1dd
=64	=64	=64	=64
1AA	0A	1e	1cc
1D	.	1f	1a
=65.	=65.	=65.	=65.
1C	0r	2g\	1.cc
.	.	1e	.
1F	.	.	.
.	.	2d\	4b\
.	.	.	4a/
=66.	=66.	=66.	=66.
0E	0c	1e	0g
.	.	1r	.
=67	=67	=67	=67
1D	[0d	2A/	1f
.	.	2.d\	.
[1F	.	.	[1a
.	.	4e\	.
.	.	4f\	.
.	.	4g\	.
=68.	=68.	=68.	=68.
2F\]	1d]	2a\	2a/]
2G\	.	1g	2b\
1A	1c	.	1cc
.	.	2f#i\	.
=69.	=69.	=69.	=69.
1G	0d	2g\	2.b\
.	.	4f\	.
.	.	4e\	4a/
1B	.	1d	1dd
=70	=70	=70	=70
1A	0e	1r	1cc
[1G	.	[1g	[1b
=71.	=71.	=71.	=71.
1G]	1d	2g\]	2b\]
.	.	2f\	2a/
1A	1c	[1e	[1a
=72.	=72.	=72.	=72.
0E	0B	2e\]	2a/]
.	.	4d\	2g#i/
.	.	4c\	.
.	.	1B	2.g#i/
.	.	.	4f#i/
=73	=73	=73	=73
1AA	[0A	0c	0a
[1C	.	.	.
=74.	=74.	=74.	=74.
2C/]	1A]	1c	0r
2D\	.	.	.
2E\	1G	[1B	.
2F\	.	.	.
=75.	=75.	=75.	=75.
0G	0B-	2B\]	1d
.	.	2c\	.
.	.	[1d	1g
=76	=76	=76	=76
1D	0A	2d\]	1a
.	.	2c\	.
1F	.	1d	1f
=77.	=77.	=77.	=77.
1E	[0G	1.e	1.g
[1C	.	.	.
.	.	2d\	[2cc\
=78.	=78.	=78.	=78.
2C/]	0G]	1c	2cc\]
2D\	.	.	4b\
.	.	.	4a/
1E	.	1B	2.g/
.	.	.	4f/
=79	=79	=79	=79
1D	0F	1d	1a
[1A	.	1c	2a/
.	.	.	[2f/
=80.	=80.	=80.	=80.
2A\]	0r	0f	2f/]
2G\	.	.	2e/
2F\	.	.	[1d
4G\	.	.	.
4A\	.	.	.
=81.	=81.	=81.	=81.
4B-i\	0r	1d	2d/]
4A\	.	.	.
4G\	.	.	2B/
4F\	.	.	.
1E	.	1g	1c#i
=82	=82	=82	=82
[0D	0r	1.f	0d
.	.	[2d\	.
=83.	=83.	=83.	=83.
0D]	0r	2d\]	0f
.	.	4c\	.
.	.	4B\	.
.	.	2A/	.
.	.	[2d\	.
=84.	=84.	=84.	=84.
0E	0r	2d\]	0g
.	.	4c\	.
.	.	4B\	.
.	.	4c\	.
.	.	4B\	.
.	.	4A/	.
.	.	4G/	.
=85	=85	=85	=85
0D	0F	2F/	0a
.	.	2.d\	.
.	.	4e\	.
.	.	2f\	.
=86.	=86.	=86.	=86.
0E	0G	2e\	1r
.	.	2.g\	.
.	.	.	1g
.	.	4f\	.
.	.	4e\	.
.	.	4d\	.
=87.	=87.	=87.	=87.
0AA	0A	0c	1e
.	.	.	[1f
=88	=88	=88	=88
0C	1G	1r	2f/]
.	.	.	2e/
.	1E	1c	[1e
=89.	=89.	=89.	=89.
0D	0F	2.A/	2e/]
.	.	.	4d/
.	.	4F/	4c/
.	.	2A/	1d
.	.	2B\	.
=90.	=90.	=90.	=90.
1AA	2E/	1c	1e
.	1A	.	.
1E	.	1B	2r
.	2G/	.	2e/
=91	=91	=91	=91
1AA	1A	1A	2f/
.	.	.	1a
1E	1B	1r	.
.	.	.	2g/
=92.	=92.	=92.	=92.
1F	1A	2c\	1a
.	.	1d	.
1G	1r	.	1b
.	.	2e\	.
=93.	=93.	=93.	=93.
1D	1d	2f\	2a/
.	.	2.a\	1dd
1A	1e	.	.
.	.	4g\	.
.	.	2e\	2cc\
=94	=94	=94	=94
1D	1d	1f	2dd\
.	.	.	2a/
2A\	2c\	2e\	2cc\
[2G\	[2d\	[2g\	[2b\
=95.	=95.	=95.	=95.
2G\]	4d\]	4g\]	4b\]
.	4c\	4f\	4a/
2F\	2A/	2d\	1a
1E	1B	1e	.
.	.	.	2g/
=96.	=96.	=96.	=96.
2.F\	0A	2.c\	2a/
.	.	.	2.cc\
4E\	.	4d\	.
2C/	.	2e\	.
.	.	.	4b\
[2F\	.	2c\	[2a/
=97	=97	=97	=97
4F\]	[0A	2d\	4a/]
4E\	.	.	4g/
2C/	.	2e\	2e/
2D\	.	2A/	2f/
4C/	.	2d\	4e/
4BB/	.	.	4d/
=98.	=98.	=98.	=98.
1.AA	0A]	1e	2c/
.	.	.	2.cc\
.	.	2e\	.
.	.	.	4b\
[2D\	.	[2f\	[2a/
=99.	=99.	=99.	=99.
1D]	[0Al	4f\]	4a/]
.	.	4e\	4g/
.	.	4d\	4f/
.	.	4c\	4e/
1D	.	1d	1f
=100	=100	=100	=100
0AAl	0A]	0cl	0el
!!LO:LB:i:g=z
=101||	=101||	=101||	=101||
*>B	*>B	*>B	*>B
*clefF4	*clefGv2	*clefGv2	*clefG2
*k[]	*k[]	*k[]	*k[]
*M2/1	*M2/1	*M2/1	*M2/1
*met(O2)	*met(O2)	*met(O2)	*met(O2)
!!incipit: 6
!!section: Benedictus-Osanna II
!!!OMD: Benedictus-Osanna II
1r	1D	0r	[0f
1D	[1F	.	.
=102.	=102.	=102.	=102.
1.F	2F/]	0r	0f_
.	2G/	.	.
.	1A	.	.
2G\	.	.	.
=103.	=103.	=103.	=103.
1A	1D	0r	0f_
1D	[1d	.	.
=104	=104	=104	=104
2BB-/	2d\]	0r	0f]
2C/	4c\	.	.
.	4B\	.	.
1D	1A	.	.
=105.	=105.	=105.	=105.
2E\	2G/	0r	[0g
1C	1c	.	.
2D\	2B\	.	.
=106.	=106.	=106.	=106.
2E\	2c\	0r	0g]
2F\	2d\	.	.
1G	1B	.	.
=107	=107	=107	=107
2F\	2A/	0r	[0a
4E\	2.c\	.	.
4D\	.	.	.
2C/	.	.	.
.	4B\	.	.
[2D\	[2A/	.	.
=108.	=108.	=108.	=108.
4D\]	4A/]	0r	0a_
4AA/	4G/	.	.
1D	2F/	.	.
.	1E	.	.
2C#i/	.	.	.
=109.	=109.	=109.	=109.
1D	1D	1d	0a]
1AA	1A	1e	.
=110	=110	=110	=110
1D	2r	1f	0a
.	1d	.	.
2.F\	.	2d\	.
.	4c\	[2f\	.
4G\	4B\	.	.
=111.	=111.	=111.	=111.
2A\	2c\	4f\]	[0a
.	.	4e\	.
2B-i\	1d	2d\	.
1A	.	1e	.
.	2c#i\	.	.
=112.	=112.	=112.	=112.
2D\	1d	2r	0a]
2.F\	.	1d	.
.	1r	.	.
4G\	.	.	.
[2A\	.	4c\	.
.	.	4B\	.
=113	=113	=113	=113
2A\]	0r	2c\	0r
4G\	.	1d	.
4F\	.	.	.
1E	.	.	.
.	.	2c#i\	.
=114.	=114.	=114.	=114.
2D\	0r	2d\	0r
2.F\	.	2A/	.
.	.	2c\	.
4E\	.	.	.
4D\	.	[2B\	.
4C/	.	.	.
=115.	=115.	=115.	=115.
2D\	0r	4B\]	0r
.	.	4A/	.
2AA/	.	1A	.
1BB	.	.	.
.	.	2G#i/	.
=116	=116	=116	=116
1AA	0A	2A/	0a
.	.	2.c\	.
1r	.	.	.
.	.	4d\	.
.	.	2e\	.
=117.	=117.	=117.	=117.
0r	0F	4f\	0a
.	.	4e\	.
.	.	4d\	.
.	.	4c\	.
.	.	1d	.
=118.	=118.	=118.	=118.
0r	1.E	1r	0g
.	.	1e	.
.	2F/	.	.
=119	=119	=119	=119
0r	0G	1.d	0b-
.	.	[2g\	.
=120.	=120.	=120.	=120.
0r	0D	2g\]	0a
.	.	4f#i\	.
.	.	4e\	.
.	.	1f#i	.
=121.	=121.	=121.	=121.
1.E	0r	2g\	[0g
.	.	2.G/	.
.	.	4A/	.
4D\	.	4B\	.
4C/	.	4c\	.
=122	=122	=122	=122
2BB/	0r	2d\	0g]
2.C/	.	2.e\	.
4D\	.	4d\	.
2E\	.	2B\	.
=123.	=123.	=123.	=123.
2F\	1r	2A/	0a
2.D\	.	2.d\	.
.	1A	.	.
4E\	.	4c\	.
2F\	.	2d\	.
=124.	=124.	=124.	=124.
4G\	1B	4e\	0g
4F\	.	4d\	.
4E\	.	4c\	.
4D\	.	4B\	.
1E	1G	1c	.
=125	=125	=125	=125
2D\	1A	1d	0f
2.F\	.	.	.
.	2D/	[1f	.
4E\	.	.	.
[2D\	[2F/	.	.
=126.	=126.	=126.	=126.
2D\]	4F/]	2f\]	0r
.	4G/	.	.
4C/	1A	4e\	.
4BB/	.	4d\	.
2AA/	.	1c	.
[2A\	[2F/	.	.
=127.	=127.	=127.	=127.
2A\]	4F/]	1d	0r
.	4E/	.	.
2F\	1D	.	.
1E	.	1e	.
.	2C#i/	.	.
=128	=128	=128	=128
1D	1D	1A	2d/
.	.	.	2.f/
1r	1r	1d	.
.	.	.	4g/
.	.	.	2a/
=129.	=129.	=129.	=129.
0r	0r	2d\	2b-i\
.	.	1f	1a
.	.	4e\	4g/
.	.	4d\	4f/
=130.	=130.	=130.	=130.
0r	0r	1c	1e
.	.	[1d	2d/
.	.	.	[2f/
=131	=131	=131	=131
0r	0r	2d\]	2f/]
.	.	4c\	4e/
.	.	4B\	4d/
.	.	2A/	2c/
.	.	2B\	2d/
=132.	=132.	=132.	=132.
0r	0r	2.A/	2f/
.	.	.	1e
.	.	4B\	.
.	.	2c\	.
.	.	[2d\	2d/
=133.	=133.	=133.	=133.
0r	0r	2d\]	2f/
.	.	2B\	2g/
.	.	2c\	1a
.	.	2d\	.
=134	=134	=134	=134
0r	0r	2e\	2g/
.	.	2f\	2a/
.	.	1e	2cc\
.	.	.	[2b\
=135.	=135.	=135.	=135.
0r	0r	2d\	4b\]
.	.	.	4a/
.	.	2c\	1a
.	.	1B	.
.	.	.	2g#i/
=136.	=136.	=136.	=136.
0r	0r	2A/	1a
.	.	1d	.
.	.	.	2b\
.	.	2c\	[2a/
=137	=137	=137	=137
0r	0r	2.d\	4a/]
.	.	.	4g/
.	.	.	4f/
.	.	4e\	4e/
.	.	2f\	2d/
.	.	[2e\	[2g/
=138.	=138.	=138.	=138.
0r	0r	4e\]	2g/]
.	.	4c\	.
.	.	2d\	2f/
.	.	2c\	2e/
.	.	2B\	2d/
=139.	=139.	=139.	=139.
0r	0r	2A/	1f
.	.	1d	.
.	.	.	1e
.	.	2c#i\	.
=140	=140	=140	=140
0D	1D	0d	0d
.	1F	.	.
=141.	=141.	=141.	=141.
1C	1E	1G	1e
1D	[1A	1d	1f
=142.	=142.	=142.	=142.
0E	1A]	2c\	0g
.	.	4B\	.
.	.	4A/	.
.	1G	1B	.
=143	=143	=143	=143
0AA	0c	2A/	1e
.	.	2.c\	.
.	.	.	1a
.	.	4d\	.
.	.	[2e\	.
=144.	=144.	=144.	=144.
1E	[0B	4e\]	1g
.	.	4f\	.
.	.	2g\	.
2F\	.	2f\	2a/
[2G\	.	[2d\	[2b\
=145.	=145.	=145.	=145.
4G\]	0B]	4d\]	4b\]
4F\	.	4e\	4a/
2D\	.	2f\	1a
1E	.	1e	.
.	.	.	2g#i/
=146	=146	=146	=146
1AA	[0A	1c	0a
[1D	.	2d\	.
.	.	[2f\	.
=147.	=147.	=147.	=147.
2D\]	0A]	2f\]	1r
2E\	.	4e\	.
.	.	4d\	.
1F	.	2c\	1a
.	.	[2d\	.
=148.	=148.	=148.	=148.
1G	0r	2d\]	1b
.	.	2.e\	.
1A	.	.	1cc
.	.	4B\	.
.	.	2c\	.
=149	=149	=149	=149
1D	[0A	1d	1f
2C/	.	1e	2g/
[2AA/	.	.	[2a/
=150.	=150.	=150.	=150.
2AA/]	1A]	0c	4a/]
.	.	.	4g/
2AA/	.	.	4f/
.	.	.	4e/
1C	1G	.	[1e
=151.	=151.	=151.	=151.
0D	0F	1A	2e/]
.	.	.	2d/
.	.	1B	2d/
.	.	.	2c/
=152	=152	=152	=152
1C	0E	1c	2e/
.	.	.	2.g/
2r	.	1B	.
.	.	.	4a/
[2G\	.	.	2b\
=153.	=153.	=153.	=153.
2G\]	0r	1e	2g/
1A	.	.	1cc
.	.	2c\	.
[2G\	.	2d\	[2b\
=154.	=154.	=154.	=154.
2G\]	0r	2e\	2b\]
2F\	.	2A/	1a
1E	.	1B	.
.	.	.	2g#i/
=155	=155	=155	=155
1.F	0D	1A	1a
.	.	[1d	2d/
2D\	.	.	[2a/
=156.	=156.	=156.	=156.
0D	0F	2d\]	2a/]
.	.	2c\	4g/
.	.	.	4a/
.	.	2B\	4b\
.	.	.	4a/
.	.	4A/	4g/
.	.	4B\	4f/
=157.	=157.	=157.	=157.
1C	0G	1c	1e
2D\	.	[1B	2d/
[2E\	.	.	[2g/
=158	=158	=158	=158
2E\]	0G	2B\]	2g/]
4D\	.	2c\	2a/
4C/	.	.	.
1BB	.	2.d\	1b
.	.	4B\	.
=159.	=159.	=159.	=159.
1.AA	0A	1e	1cc
.	.	1f	2cc\
[2D\	.	.	[2a/
=160.	=160.	=160.	=160.
2D\]	[0A	1e	4a/]
.	.	.	4g/
2C/	.	.	4f/
.	.	.	4e/
2D\	.	2d\	2f/
2AA/	.	2c\	2e/
=161	=161	=161	=161
1D	0A_	2d\	2d/
.	.	2A/	2f/
2C/	.	1c	2g/
[2F\	.	.	[2a/
=162.	=162.	=162.	=162.
4F\]	0A_	2d\	4a/]
4E\	.	.	4b\
2C/	.	2e\	2cc\
2D\	.	2f\	2b\
[2F\	.	[2d\	[2a/
=163.	=163.	=163.	=163.
2F\]	0A]	2d\]	4a/]
.	.	.	4g/
2E\	.	2c\	1g
1D	.	1d	.
.	.	.	2f#i/
=164	=164	=164	=164
0GGl	0Gl	0dl	0gl
==	==	==	==
*-	*-	*-	*-
!!!RDF**kern: l=long note in original notation
!!!RDF**kern: i=editorial accidental
!!!RDF**kern: V=start of tuplet marker
!!!RDF**kern: Z=end of tuplet marker
!!!ENC:	Jesse Rodin; Victoria Chang 2011/04/05
!!!END:	2011/04/05/
!!!EED:	Jesse Rodin
!!!EEV:	2012/07/26/
!!attribution-level@Jos: 4 (questionable)
!!!ONB:	Translated from MusicXML and edited on 2012/07/26/ by Craig Sapp
!!muse2ps: T^@{OPR}^u^@{ONM}{. }@{OTL}^C^@{COA}?\n@{SCT}^i2I150v85,85,85,150Q16
